school/img/country/SB.svg

<svg width="13" height="12" viewBox="0 0 13 12" fill="none" xmlns="http://www.w3.org/2000/svg">
<rect width="13" height="12" rx="2" fill="white"/>
<mask id="mask0" mask-type="alpha" maskUnits="userSpaceOnUse" x="0" y="0" width="13" height="12">
<rect width="13" height="12" rx="2" fill="white"/>
</mask>
<g mask="url(#mask0)">
<rect width="13" height="12" fill="url(#paint0_linear)"/>
<g filter="url(#filter0_d)">
<path fill-rule="evenodd" clip-rule="evenodd" d="M0 0H13L0 12V0Z" fill="url(#paint1_linear)"/>
</g>
<path fill-rule="evenodd" clip-rule="evenodd" d="M13 0L3.57628e-07 12H13V0Z" fill="#2C7442"/>
<rect width="17.1297" height="13.3727" transform="matrix(0.753818 -0.657083 0.462707 0.886511 -1.28778 11.8234)" fill="#FFD646"/>
<path fill-rule="evenodd" clip-rule="evenodd" d="M0.938024 2.60901L1.02489 1.9545L0.656921 1.49098L1.16544 1.39549L1.39286 0.799995L1.62028 1.39549L2.12879 1.49098L1.76083 1.9545L1.84769 2.60901L1.39286 2.3L0.938024 2.60901ZM4.03328 2.60901L4.12015 1.9545L3.75218 1.49098L4.2607 1.39549L4.48812 0.799995L4.71553 1.39549L5.22405 1.49098L4.85609 1.9545L4.94295 2.60901L4.48812 2.3L4.03328 2.60901ZM4.12015 4.3545L4.03328 5.00901L4.48812 4.7L4.94295 5.00901L4.85609 4.3545L5.22405 3.89098L4.71553 3.79549L4.48812 3.2L4.2607 3.79549L3.75218 3.89098L4.12015 4.3545ZM1.39286 4.7L0.938024 5.00901L1.02489 4.3545L0.656921 3.89098L1.16544 3.79549L1.39286 3.2L1.62028 3.79549L2.12879 3.89098L1.76083 4.3545L1.84769 5.00901L1.39286 4.7ZM2.48565 3.80901L2.94049 3.49999L3.39532 3.80901L3.30846 3.1545L3.67643 2.69098L3.16791 2.59549L2.94049 2L2.71307 2.59549L2.20455 2.69098L2.57252 3.1545L2.48565 3.80901Z" fill="white"/>
</g>
<defs>
<filter id="filter0_d" x="0" y="0" width="13" height="12" filterUnits="userSpaceOnUse" color-interpolation-filters="sRGB">
<feFlood flood-opacity="0" result="BackgroundImageFix"/>
<feColorMatrix in="SourceAlpha" type="matrix" values="0 0 0 0 0 0 0 0 0 0 0 0 0 0 0 0 0 0 127 0"/>
<feOffset/>
<feColorMatrix type="matrix" values="0 0 0 0 0 0 0 0 0 0 0 0 0 0 0 0 0 0 0.06 0"/>
<feBlend mode="normal" in2="BackgroundImageFix" result="effect1_dropShadow"/>
<feBlend mode="normal" in="SourceGraphic" in2="effect1_dropShadow" result="shape"/>
</filter>
<linearGradient id="paint0_linear" x1="0" y1="0" x2="0" y2="12" gradientUnits="userSpaceOnUse">
<stop stop-color="#1DBE4F"/>
<stop offset="1" stop-color="#159B3F"/>
</linearGradient>
<linearGradient id="paint1_linear" x1="0" y1="0" x2="0" y2="12" gradientUnits="userSpaceOnUse">
<stop stop-color="#0660D4"/>
<stop offset="1" stop-color="#0051BB"/>
</linearGradient>
</defs>
</svg>

<svg width="13" height="12" fill="none" xmlns="http://www.w3.org/2000/svg"><rect width="13" height="12" rx="2" fill="#fff"/><mask id="a" maskUnits="userSpaceOnUse" x="0" y="0" width="13" height="12"><rect width="13" height="12" rx="2" fill="#fff"/></mask><g mask="url(#a)"><path fill="url(#paint0_linear)" d="M0 0h13v12H0z"/><g filter="url(#filter0_d)"><path fill-rule="evenodd" clip-rule="evenodd" d="M0 0h13L0 12V0z" fill="url(#paint1_linear)"/></g><path fill-rule="evenodd" clip-rule="evenodd" d="M13 0L0 12h13V0z" fill="#2C7442"/><path fill="#FFD646" d="M-1.288 11.823L11.625.568l6.188 11.855L4.9 23.679z"/><path fill-rule="evenodd" clip-rule="evenodd" d="M.938 2.609l.087-.655-.368-.463.508-.096L1.393.8l.227.595.509.096-.368.463.087.655-.455-.309-.455.309zm3.095 0l.087-.655-.368-.463.509-.096L4.488.8l.228.595.508.096-.368.463.087.655-.455-.309-.455.309zm.087 1.745l-.087.655.455-.309.455.309-.087-.655.368-.463-.508-.096-.228-.595-.227.595-.509.096.368.463zM1.393 4.7l-.455.309.087-.655-.368-.463.508-.096.228-.595.227.595.509.096-.368.463.087.655-.455-.309zm1.093-.891L2.94 3.5l.455.309-.087-.655.368-.463-.508-.096L2.94 2l-.227.595-.508.096.368.464-.087.654z" fill="#fff"/></g><defs><linearGradient id="paint0_linear" x1="0" y1="0" x2="0" y2="12" gradientUnits="userSpaceOnUse"><stop stop-color="#1DBE4F"/><stop offset="1" stop-color="#159B3F"/></linearGradient><linearGradient id="paint1_linear" x1="0" y1="0" x2="0" y2="12" gradientUnits="userSpaceOnUse"><stop stop-color="#0660D4"/><stop offset="1" stop-color="#0051BB"/></linearGradient><filter id="filter0_d" x="0" y="0" width="13" height="12" filterUnits="userSpaceOnUse" color-interpolation-filters="sRGB"><feFlood flood-opacity="0" result="BackgroundImageFix"/><feColorMatrix in="SourceAlpha" values="0 0 0 0 0 0 0 0 0 0 0 0 0 0 0 0 0 0 127 0"/><feOffset/><feColorMatrix values="0 0 0 0 0 0 0 0 0 0 0 0 0 0 0 0 0 0 0.06 0"/><feBlend in2="BackgroundImageFix" result="effect1_dropShadow"/><feBlend in="SourceGraphic" in2="effect1_dropShadow" result="shape"/></filter></defs></svg>
